X:1
T:Title
%%score { 1 | 2 }
L:1/8
Q:1/4=86
M:2/4
K:Ab
V:1 treble nm="Grand Piano"
V:2 bass 
V:1
 [Ec][Ec] [DB][Ec] | [Fd][Fd] [A,DF]2 | [A,CE][A,EA] [DEG][CEA] | cB B2 | [Ec][Ec] [DB][Ec] | %5
w: J.~M.~Stillman * * *|||||
 [Fd][Fd] FF/F/ | EA GB | [CA]4 | ec e2 | cA c2 | [GB][Ac] [Bd][Ac]/[Ac]/ | [GB]4 | %12
w: |||||||
 [EAc][EAc] [DEB][CEA] |[M:5/8] [A,EG][A,DF] [Fd]3 |[M:2/4] cc BB | [CA]4 |] %16
w: ||||
V:2
 [A,,A,][A,,A,] [A,,A,][A,,A,] | [D,A,][D,A,] D,2 | A,,C, B,,A,, | [E,A,E][E,G,E] [E,G,E]2 | %4
 [A,,A,][A,,A,] [A,,A,][A,,A,] | [D,A,][D,A,] [D,A,D][D,A,D]/[D,A,D]/ | %6
 [E,A,C][E,CE] [E,B,E][E,G,D] | [A,,A,]4 | [A,CA][A,A] [A,CA]2 | [A,EA][A,CE] [A,EA]2 | %10
 [E,E][E,E] [E,E][E,E]/[E,E]/ | [E,E]4 | A,,A,, A,,A,, |[M:5/8] D,D, [D,A,]3 | %14
[M:2/4] [E,A,E][E,A,E] [E,G,D][E,G,D] | [A,,A,]4 |] %16

